Adwaita++/actions/symbolic/view-column-symbolic.svg

<svg height="16" width="16" xmlns="http://www.w3.org/2000/svg">
  <path d="m3 3v10h2v-10zm4 0v10h2v-10zm4 0v10h2v-10z" fill="#474747"/>
</svg>

<svg xmlns="http://www.w3.org/2000/svg" width="16" height="16" version="1.1">
 <path style="fill:#474747" d="M 3,3 V 13 H 5 V 3 Z M 7,3 V 13 H 9 V 3 Z M 11,3 V 13 H 13 V 3 Z"/>
</svg>
